X: 430
T: A Trip To The Cottage
R: jig
M: 6/8
K: Dmajor
g|ecc cBc|dBB BAB|eAA AAB|cBB Bcd|
.e2c cBc|dBB BAB|eAA BAB|cAA A3:|
d3 AFA|DFA {c}B2A|d3 ede|{g}fed B2A|
dcd AFA|DFA {c}B2A|d2f efg|fdc d3:|

